X:1
N: Portnacraig
N: 8 x 32R 3C (RSCDS Book 36)
T: The Brown Trout
C: by Muriel A. Johnstone
C: Arr. T. Traub 6-26-03
R: reel
M: 4/4
%
K: D
L: 1/8
(3ABc |"D"d2 "G"B2 "D"AFED |"A"CDEF E2 A2 |"Bm"d2 cd "E7"Bfed|"A"c2 A2 A2 (3ABc|"D"d2 "G"B2 "D"AFED |"A"CDEF E2 A2 |"Bm"d2 fa "A"gecA|"D"d2 f2 d2 de||
"D"fd d2 Ad d2|"G"Bd d2 "A7"cdeg|"D"fd d2 Ad d2|"A7"gecA "D"d2 de|"D"fd d2 Ad d2|"G"Bd d2 "A7"cdeg|"D"fd d2 "Em"bged|"A7"cABc "D"d2||
(3ABc |"D"d2 "G"B2 "D"AFED |"A"CDEF E2 A2 |"Bm"d2 cd "E7"Bfed|"A"c2 A2 A2 (3ABc|"D"d2 "G"B2 "D"AFED |"A"CDEF E2 A2 |"Bm"d2 fa "A"gecA|"D"d2 f2 d2 de||
"D"fd d2 Ad d2|"G"Bd d2 "A7"cdeg|"D"fd d2 Ad d2|"A7"gecA "D"d2>c2|"Bm"d2 b2 "D"afed|"A"cdef e2 A2|"G"B2 ef "A7"gecA|"D"d2 f2 d2|]
